src/svg/digg.svg

<svg height="1000" width="1142.857" xmlns="http://www.w3.org/2000/svg"><path d="M183.024 157.42h113.832v548.514h-296.856v-388.926h183.024v-159.588zm0 457.002v-205.902h-68.634v205.902h68.634zm159.588 -297.414v388.926h114.39v-388.926h-114.39zm0 -159.588v113.832h114.39v-113.832h-114.39zm160.146 159.588h297.414v525.636h-297.414v-90.954h183.024v-45.756h-183.024v-388.926zm183.024 297.414v-205.902h-68.634v205.902h68.634zm160.146 -297.414h296.856v525.636h-296.856v-90.954h182.466v-45.756h-182.466v-388.926zm182.466 297.414v-205.902h-68.634v205.902h68.634z"/></svg>

<svg height="1000" width="1142.9" xmlns="http://www.w3.org/2000/svg"><path d="M183 157.4h113.9v548.5H0V317h183V157.4zm0 457V408.5h-68.6v205.9H183zM342.6 317v388.9H457V317H342.6zm0 -159.6v113.8H457V157.4H342.6zM502.8 317h297.4v525.6H502.8v-90.9h183v-45.8h-183V317zm183 297.4V408.5h-68.6v205.9h68.6zM846 317h296.9v525.6H846v-90.9h182.5v-45.8H846V317zm182.5 297.4V408.5h-68.7v205.9h68.7z"/></svg>
